src/pos-icons/netflix.svg

<svg height="24" viewBox="0 0 24 24" width="24" xmlns="http://www.w3.org/2000/svg"><path d="m6.5 2h4l2.94 8.83.06-8.83h4v20c-1.25-.22-2.63-.36-4.09-.42l-2.91-8.58-.07 8.59c-1.4.06-2.73.2-3.93.41z"/></svg>

<?xml version="1.0" encoding="UTF-8"?><!DOCTYPE svg PUBLIC "-//W3C//DTD SVG 1.1//EN" "http://www.w3.org/Graphics/SVG/1.1/DTD/svg11.dtd"><svg xmlns="http://www.w3.org/2000/svg" xmlns:xlink="http://www.w3.org/1999/xlink" version="1.1" id="mdi-netflix" width="24" height="24" viewBox="0 0 24 24"><path d="M6.5,2H10.5L13.44,10.83L13.5,2H17.5V22C16.25,21.78 14.87,21.64 13.41,21.58L10.5,13L10.43,21.59C9.03,21.65 7.7,21.79 6.5,22V2Z" /></svg>
